cloudphone-mobile/gear/svg/phone-line.svg

<svg class="phone-test" xmlns="http://www.w3.org/2000/svg" preserveAspectRatio="xMidYMid" width="712" height="166" viewBox="0 0 712 166"><defs><style>.cls-1{stroke:#c0c9d3;stroke-linecap:round;stroke-linejoin:round;stroke-width:2.5px;fill:none;fill-rule:evenodd}.draw{-webkit-animation-timing-function:linear;animation-timing-function:linear;-webkit-animation-iteration-count:1;animation-iteration-count:1;-webkit-animation-direction:normal;animation-direction:normal;-webkit-animation-play-state:paused;animation-play-state:paused;-webkit-animation-fill-mode:forwards;animation-fill-mode:forwards;-webkit-animation-duration:2s;animation-duration:2s}.draw:nth-child(1){stroke-dasharray:1601.908447265625,1601.908447265625;stroke-dashoffset:1601.908447265625;-webkit-animation-name:pathDraw1;animation-name:pathDraw1}@-webkit-keyframes pathDraw1{0%{stroke-dashoffset:1601.908447265625}to{stroke-dashoffset:0}}@keyframes pathDraw1{0%{stroke-dashoffset:1601.908447265625}to{stroke-dashoffset:0}}.draw:nth-child(2){stroke-dasharray:1562.49951171875,1562.49951171875;stroke-dashoffset:1562.49951171875;-webkit-animation-name:pathDraw2;animation-name:pathDraw2}@-webkit-keyframes pathDraw2{0%{stroke-dashoffset:1562.49951171875}to{stroke-dashoffset:0}}@keyframes pathDraw2{0%{stroke-dashoffset:1562.49951171875}to{stroke-dashoffset:0}}.draw:nth-child(3){stroke-dasharray:1367.41357421875,1367.41357421875;stroke-dashoffset:1367.41357421875;-webkit-animation-name:pathDraw3;animation-name:pathDraw3}@-webkit-keyframes pathDraw3{0%{stroke-dashoffset:1367.41357421875}to{stroke-dashoffset:0}}@keyframes pathDraw3{0%{stroke-dashoffset:1367.41357421875}to{stroke-dashoffset:0}}.draw:nth-child(4){stroke-dasharray:383.3097839355469,383.3097839355469;stroke-dashoffset:383.3097839355469;-webkit-animation-name:pathDraw4;animation-name:pathDraw4}@-webkit-keyframes pathDraw4{0%{stroke-dashoffset:383.3097839355469}to{stroke-dashoffset:0}}@keyframes pathDraw4{0%{stroke-dashoffset:383.3097839355469}to{stroke-dashoffset:0}}</style></defs><path class="cls-1 draw" d="M709.007 154c-.296 6.168-6.532 9.011-23.34 9.011H235.829 23.459c-17.068 0-22.679-2.932-22.428-9.3v-19.493c-.001-.094-.009-.184-.007-.279l.007-.205V133h.058c.009-.081.011-.158.021-.24.009-.075.014-.148.025-.223.053-.378.121-.766.207-1.165.016-.074.037-.151.054-.226.075-.328.159-.663.255-1.006a28.229 28.229 0 0 1 .419-1.363c.037-.113.072-.224.112-.338.153-.445.318-.9.498-1.367l.075-.186c.16-.41.33-.829.508-1.256l.195-.458c.155-.362.316-.73.482-1.103.067-.151.133-.301.202-.453.233-.514.472-1.034.724-1.569 7.468-15.853 17.625-33.955 38.077-61.665 19.341-26.205 31.336-38.509 40.961-47.697C92.587 4.397 98.433.992 116.641.992h476.345c18.207 0 24.921 3.405 33.594 11.693 9.575 9.149 22.155 21.605 41.469 47.771 20.525 27.807 29.966 45.675 37.446 61.591.245.522.477 1.031.701 1.533l.193.442c.158.359.309.714.454 1.062l.19.462c.147.364.286.722.419 1.074.042.111.087.225.127.335.342.93.626 1.815.852 2.659l.069.277a19.233 19.233 0 0 1 .278 1.255c.067.358.12.709.16 1.05.003.033.009.067.013.1.026.242.031.471.042.704h.038v21h-.024z"/><path class="cls-1 draw" d="M592.986.992c18.207 0 24.921 3.405 33.594 11.693 9.575 9.149 22.155 21.605 41.469 47.771 20.525 27.807 29.966 45.675 37.446 61.591 6.837 14.55 5.483 20.987-19.828 20.987H235.829 23.459c-25.312 0-25.447-6.437-18.593-20.987 7.468-15.853 17.625-33.955 38.077-61.665 19.341-26.205 31.336-38.509 40.961-47.697C92.587 4.397 98.433.992 116.641.992h476.345z"/><path class="cls-1 draw" d="M125.099 4.929L43.352 135.674h610.391L575.614 4.929H125.099zM246.031 156h-122a3 3 0 1 1 0-6h122a3 3 0 1 1 0 6zM96.49 16.867c-2.189 0-3.468-.718-2.858-1.6.607-.878 2.857-1.587 5.028-1.587 2.171 0 3.455.709 2.867 1.587-.592.882-2.848 1.6-5.037 1.6zm2.028 4.884c-.812 1.217-3.885 2.21-6.858 2.21-2.974 0-4.694-.993-3.848-2.21.841-1.211 3.902-2.186 6.841-2.186 2.94 0 4.672.975 3.865 2.186zm-34.45 42.737c-4.927 0-7.647-1.814-6.092-4.031 1.54-2.194 6.695-3.956 11.53-3.956 4.835 0 7.591 1.762 6.143 3.956-1.463 2.217-6.654 4.031-11.581 4.031zM30.03 114.483c-3.668 0-5.593-1.51-4.307-3.36 1.275-1.836 5.234-3.313 8.85-3.313 3.617 0 5.564 1.477 4.34 3.313-1.234 1.85-5.215 3.36-8.883 3.36z"/></svg>

<svg class='phone-test' xmlns="http://www.w3.org/2000/svg" xmlns:xlink="http://www.w3.org/1999/xlink"
     preserveAspectRatio="xMidYMid" width="712" height="166" viewBox="0 0 712 166">
    <defs>
        <style>
            .cls-1 {
            stroke: #c0c9d3;
            stroke-linecap: round;
            stroke-linejoin: round;
            stroke-width: 2.5px;
            fill: none;
            fill-rule: evenodd;
            }

            .draw {
            -webkit-animation-timing-function: linear;
            animation-timing-function: linear;
            -webkit-animation-iteration-count: 1;
            animation-iteration-count: 1;
            -webkit-animation-direction: normal;
            animation-direction: normal;
            -webkit-animation-play-state: paused;
            animation-play-state: paused;
            -webkit-animation-fill-mode: forwards;
            animation-fill-mode: forwards;
            -webkit-animation-duration: 2s;
            animation-duration: 2s;

            }

            .draw:nth-child(1) {
            stroke-dasharray: 1601.908447265625, 1601.908447265625;
            stroke-dashoffset: 1601.908447265625;
            -webkit-animation-name: pathDraw1;
            animation-name: pathDraw1;
            }

            @-webkit-keyframes pathDraw1 {
            from {
            stroke-dashoffset: 1601.908447265625;
            }
            to {
            stroke-dashoffset: 0;
            }
            }

            @keyframes pathDraw1 {
            from {
            stroke-dashoffset: 1601.908447265625;
            }
            to {
            stroke-dashoffset: 0;
            }
            }

            .draw:nth-child(2) {
            stroke-dasharray: 1562.49951171875, 1562.49951171875;
            stroke-dashoffset: 1562.49951171875;
            -webkit-animation-name: pathDraw2;
            animation-name: pathDraw2;
            }

            @-webkit-keyframes pathDraw2 {
            from {
            stroke-dashoffset: 1562.49951171875;
            }
            to {
            stroke-dashoffset: 0;
            }
            }

            @keyframes pathDraw2 {
            from {
            stroke-dashoffset: 1562.49951171875;
            }
            to {
            stroke-dashoffset: 0;
            }
            }

            .draw:nth-child(3) {
            stroke-dasharray: 1367.41357421875, 1367.41357421875;
            stroke-dashoffset: 1367.41357421875;
            -webkit-animation-name: pathDraw3;
            animation-name: pathDraw3;
            }

            @-webkit-keyframes pathDraw3 {
            from {
            stroke-dashoffset: 1367.41357421875;
            }
            to {
            stroke-dashoffset: 0;
            }
            }

            @keyframes pathDraw3 {
            from {
            stroke-dashoffset: 1367.41357421875;
            }
            to {
            stroke-dashoffset: 0;
            }
            }

            .draw:nth-child(4) {
            stroke-dasharray: 383.3097839355469, 383.3097839355469;
            stroke-dashoffset: 383.3097839355469;
            -webkit-animation-name: pathDraw4;
            animation-name: pathDraw4;
            }

            @-webkit-keyframes pathDraw4 {
            from {
            stroke-dashoffset: 383.3097839355469;
            }
            to {
            stroke-dashoffset: 0;
            }
            }

            @keyframes pathDraw4 {
            from {
            stroke-dashoffset: 383.3097839355469;
            }
            to {
            stroke-dashoffset: 0;
            }
            }
        </style>
    </defs>
    <g>
        <path class="cls-1 draw"
              d="M709.007,154.000 C708.711,160.168 702.475,163.011 685.667,163.011 C677.720,163.011 426.530,163.011 235.829,163.011 C235.829,163.011 46.426,163.011 23.459,163.011 C6.391,163.011 0.780,160.079 1.031,153.711 L1.031,134.218 C1.030,134.124 1.022,134.034 1.024,133.939 C1.026,133.871 1.028,133.803 1.031,133.734 L1.031,133.000 L1.089,133.000 C1.098,132.919 1.100,132.842 1.110,132.760 C1.119,132.685 1.124,132.612 1.135,132.537 C1.188,132.159 1.256,131.771 1.342,131.372 C1.358,131.298 1.379,131.221 1.396,131.146 C1.471,130.818 1.555,130.483 1.651,130.140 C1.685,130.016 1.722,129.889 1.759,129.762 C1.854,129.440 1.958,129.111 2.070,128.777 C2.107,128.664 2.142,128.553 2.182,128.439 C2.335,127.994 2.500,127.539 2.680,127.072 C2.704,127.011 2.731,126.948 2.755,126.886 C2.915,126.476 3.085,126.057 3.263,125.630 C3.327,125.479 3.393,125.325 3.458,125.172 C3.613,124.810 3.774,124.442 3.940,124.069 C4.007,123.918 4.073,123.768 4.142,123.616 C4.375,123.102 4.614,122.582 4.866,122.047 C12.334,106.194 22.491,88.092 42.943,60.382 C62.284,34.177 74.279,21.873 83.904,12.685 C92.587,4.397 98.433,0.992 116.641,0.992 C117.920,0.992 118.606,0.992 118.954,0.992 C119.209,0.992 119.285,0.992 119.272,0.992 C123.123,0.992 168.620,0.992 592.986,0.992 C611.193,0.992 617.907,4.397 626.580,12.685 C636.155,21.834 648.735,34.290 668.049,60.456 C688.574,88.263 698.015,106.131 705.495,122.047 C705.740,122.569 705.972,123.078 706.196,123.580 C706.262,123.729 706.325,123.875 706.389,124.022 C706.547,124.381 706.698,124.736 706.843,125.084 C706.907,125.239 706.971,125.393 707.033,125.546 C707.180,125.910 707.319,126.268 707.452,126.620 C707.494,126.731 707.539,126.845 707.579,126.955 C707.921,127.885 708.205,128.770 708.431,129.614 C708.455,129.708 708.477,129.799 708.500,129.891 C708.585,130.225 708.660,130.552 708.724,130.873 C708.743,130.964 708.761,131.056 708.778,131.146 C708.845,131.504 708.898,131.855 708.938,132.196 C708.941,132.229 708.947,132.263 708.951,132.296 C708.977,132.538 708.982,132.767 708.993,133.000 L709.031,133.000 L709.031,154.000 L709.007,154.000 Z"/>
        <path class="cls-1 draw"
              d="M592.986,0.992 C611.193,0.992 617.907,4.397 626.580,12.685 C636.155,21.834 648.735,34.290 668.049,60.456 C688.574,88.263 698.015,106.131 705.495,122.047 C712.332,136.597 710.978,143.034 685.667,143.034 C677.720,143.034 426.530,143.034 235.829,143.034 C235.829,143.034 46.426,143.034 23.459,143.034 C-1.853,143.034 -1.988,136.597 4.866,122.047 C12.334,106.194 22.491,88.092 42.943,60.382 C62.284,34.177 74.279,21.873 83.904,12.685 C92.587,4.397 98.433,0.992 116.641,0.992 C135.558,0.992 25.409,0.992 592.986,0.992 Z"/>
        <path class="cls-1 draw"
              d="M125.099,4.929 L43.352,135.674 L653.743,135.674 L575.614,4.929 L125.099,4.929 Z"/>
        <path class="cls-1 draw"
              d="M246.031,156.000 L124.031,156.000 C122.374,156.000 121.031,154.657 121.031,153.000 C121.031,151.343 122.374,150.000 124.031,150.000 L246.031,150.000 C247.688,150.000 249.031,151.343 249.031,153.000 C249.031,154.657 247.688,156.000 246.031,156.000 ZM96.490,16.867 C94.301,16.867 93.022,16.149 93.632,15.267 C94.239,14.389 96.489,13.680 98.660,13.680 C100.831,13.680 102.115,14.389 101.527,15.267 C100.935,16.149 98.679,16.867 96.490,16.867 ZM98.518,21.751 C97.706,22.968 94.633,23.961 91.660,23.961 C88.686,23.961 86.966,22.968 87.812,21.751 C88.653,20.540 91.714,19.565 94.653,19.565 C97.593,19.565 99.325,20.540 98.518,21.751 ZM64.068,64.488 C59.141,64.488 56.421,62.674 57.976,60.457 C59.516,58.263 64.671,56.501 69.506,56.501 C74.341,56.501 77.097,58.263 75.649,60.457 C74.186,62.674 68.995,64.488 64.068,64.488 ZM30.030,114.483 C26.362,114.483 24.437,112.973 25.723,111.123 C26.998,109.287 30.957,107.810 34.573,107.810 C38.190,107.810 40.137,109.287 38.913,111.123 C37.679,112.973 33.698,114.483 30.030,114.483 Z"/>
    </g>
</svg>
